X:1
T:Domine, salvam fac
T:Luigi Bordèse
T:Domine, salvam fac
C:Luigi Bordèse
%%score [ ( 1 2 ) 3 ] { ( 4 7 ) | ( 5 6 ) }
L:1/8
Q:1/4=120
M:4/4
K:C
V:1 treble nm="Soprano"
V:2 treble 
V:3 treble nm="Alto"
V:4 treble nm="Organo"
V:7 treble 
V:5 bass 
V:6 bass 
V:1
 z8 |!ff! z8 | !>!c7/2 G/ G2 z2 | !>!d7/2 G/ G2 z2 | (!>!d2 ^c2 d2 B2 | c2 !>!A2 G2) z2 | %6
w: ||Do- mi- ne,|Do- mi- ne,|sal- vam fac Re-|pu- bli- cam,|
 !>!c7/2 G/ G2 z2 | !>!d7/2 G/ G2 z2 | (!>!d2 ^c2 d2 B2 | c2 !>!B2 c2) z2 | %10
w: Do- mi- ne,|Do- mi- ne,|sal- vam fac Re-|pu- bli- cam.|
"^Solo"!p! (c7/2 B/ A2 c2) | B8 | (c7/2 B/ A2 c2 |"^rit.""^rit." B8) | (c4 B2 A2) | (!>!A4 G2 F2 | %16
w: Et ex- au- di|nos,|et ex- au- di|nos|in di- e,|in di- e|
 E2 A2 B2 c2 | c4 B4 |"^Tempo I" A2) z2 z4 |!f! (G2 !>!d4 F2 | E2 !>!c4 E2) |!<(! (F2 G2 A2 B2 | %22
w: qua in- vo- ca-|vi- mus|te.|Do- mi- ne,|Do- mi- ne,|sal- vam fac Re-|
 c3!<)! d e2) z2 | (G2 !>!d4 F2 | E2 !>!c4 E2 | F2 G2 A2 B2 | c) z!p!!<(! (E2 D2 F2 | E2 G2 F2 A2 | %28
w: pu- bli- cam,|Do- mi- ne,|Do- mi- ne,|et ex- au- di|nos in di- e|qua, in di- e|
 G2 c2 A2!<)! d2) |!f! c4 B4 | c2 z2"^Tutti" z4 |!>(! (d6!>)!"^-" B2 | c2) z2 z4 | %33
w: qua in- vo- ca-|vi- mus|te,|Do- mi-|ne,|
 !fermata![ce]4 !fermata![Bd]4 | !fermata!c8 |] %35
w: Do- mi-|ne.|
V:2
 x8 | x8 | x8 | x8 | x8 | x8 | x8 | x8 | x8 | x8 | x8 | x8 | x8 | x8 | x8 | x8 | x8 | x8 | x8 | %19
 x8 | x8 | x8 | c3 B c2 x2 | x8 | x8 | x8 | x8 | x8 | x8 | x8 | x8 | x8 | x8 | x8 | x8 |] %35
V:3
 z8 |!ff! z8 | !>!E7/2 E/ E2 z2 | !>!F7/2 F/ F2 z2 | (!>!F2 E2 F2 G2 | E2 !>!F2 E2) z2 | %6
w: ||Do- mi- ne,|Do- mi- ne,|sal- vam fac Re-|pu- bli- cam,|
w: ||||* * * (Ec-|cle- si- am),|
 !>!E7/2 E/ E2 z2 | !>!F7/2 F/ F2 z2 | (!>!F2 E2 F2 G2 | E2 !>!G2 E2) z2 | z8 | %11
w: Do- mi- ne,|Do- mi- ne,|sal- vam fac Re-|pu- bli- cam.||
w: ||* * * (Ec-|cle- si- am).||
"^Solo"!p! (E7/2 ^G/ B2 G2 | A2) z2 z4 |"^rit." (E7/2 ^G/ B2 G2 | A2) z2 z4 | (!>!F4 E2 D2 | %16
w: Et ex- au- di|nos,|et ex- au- di|nos|in di- e|
w: |||||
 C2 C2 D2 E2 | E4 ^G4 | A2) z2 z4 | z8 |!f! G2 !>!E4 C2 |!<(! (D2 E2 F2 G2 | E3!<)! G [Ec]2) z2 | %23
w: qua in- vo- ca-|vi- mus|te.||Do- mi- ne,|sal- vam fac Re-|pu- bli- cam,|
w: |||||* * * (Ec-|cle- si- am),|
 z8 | G2 !>!E4 C2 | D2 E2 F2 D2 | E z!p!!<(! C2 B,2 D2 | C2 E2 D2 F2 | E2 G2 F2!<)! F2 |!f! E4 G4 | %30
w: |Do- mi- ne,|et ex- au- di|nos in di- e|qua, in di- e|qua in- vo- ca-|vi- mus|
w: |||||||
 E2 z2"^Tutti" z4 |!>(! (F6!>)!"^-" G2 | E2) z2 z4 | !fermata![Ec]4 !fermata![GB]4 | %34
w: te,|Do- mi-|ne,|Do- mi-|
w: ||||
 !fermata![Ec]8 |] %35
w: ne.|
w: |
V:4
!ff! !^![EGc]4 !^![FGBd]4 | !>![EGce]2 !>![FGBd]2 !>![EGc]2 z2 | [EGc]4- [EGc]2 z2 | %3
 [FGBd]4- [FGBd]2 z2 | (!>![Fd]2 [E^c]2 [Fd]2 [GB]2) | ([Ec]2 !>![FA]2 [EG]2) z2 | %6
 [EGc]4- [EGc]2 z2 | [FGBd]4- [FGBd]2 z2 | !>![Fd]2 [E^c]2 [Fd]2 [GB]2 | %9
 [Ec]2 !>![FGB]2 [EGc]2 z2 |!p! ([CEA]8 | [B,E^G]8) | ([CEA]8 | [B,E^G]8) | [CEA]2 z2 z4 | %15
 ([FA]4 [EG]2 [DF]2 | [CE]2 [CA]2 [DB]2 [Ec]2 | A4 ^G4 |"^Tempo I" A) z [CE]2 [CE]2 [CE]2 | %19
 [G,DG]2 [G,DG]2 [G,DG]2 [G,DF]2 | [G,CE]2 [G,CE]2 [G,CE]2 [G,CE]2 | [DF]2 [EG]2 [FA]2 [GB]2 | %22
 [Ec]3 [Gd] [ce]2 z2 | [G,DG]2 [G,DG]2 [G,DG]2 [G,DF]2 | [G,CE]2 [G,CE]2 [G,CE]2 [G,CE]2 | %25
 [DF]2 [EG]2 [FA]2 [DB]2 | [Ec] z!p!!<(! ([CE]2 [B,D]2 [DF]2 | [CE]2 [EG]2 [DF]2 [FA]2 | %28
 [EG]2 [CGc]2 [CFA]2!<)! [FAd]2) | [EGc]2 [EGc]2 [DGB]2 [DGB]2 | [CEGc] z .G.E .C.E.G.c | %31
!>(! (d6 B2!>)! | [EGc]) z .G.E .C.E.G.c | !fermata![EGce]4 !fermata![FGBd]4 | !fermata![EGc]8 |] %35
V:5
 !^![C,,C,]4 !^!G,,4 | !>![C,,C,]2 !>!G,,2 !>![C,,C,]2 z2 | .C,,.C,.G,,.E,, C,,2 z2 | %3
 .G,,.G,.D,.B,, G,,2 z2 | G,8 | [C,,C,]2 [C,,C,]2 [C,,C,]2 z2 | .C,,.C,.G,,.E,, C,,2 z2 | %7
 .G,,.G,.D,.B,, G,,2 z2 | G,8 | [C,,C,]2 !>!G,,2 [C,,C,]2 z2 | A,8 | E,8 | A,8 |"^rit." E,8 | %14
 A,2 z2 z4 | D,8 | E,8 | E,8 | A,, z!mf! [A,,A,]2 [A,,A,]2 [A,,A,]2 | B,,2 B,,2 B,,2 B,,2 | %20
 C,2 C,2 C,2 C,2 | [G,,G,]2 [G,,G,]2 [G,,G,]2 [G,,G,]2 | [C,,C,]2 [C,,C,]2 [C,,C,]2 [C,,C,]2 | %23
 B,,2 B,,2 B,,2 B,,2 | C,2 C,2 C,2 C,2 | [G,,G,]2 [G,,G,]2 [G,,G,]2 [G,,G,]2 | %26
 C, z z2 !^![G,,G,]4 | C, z z2 !^![G,,G,]4 | C,2 E,2 F,2 D,2 |!f! G,2 G,2 G,,2 G,,2 | C, z z2 z4 | %31
 [G,,G,]2 [G,,G,]>[G,,G,] [G,,G,]2 [G,,G,]2 | C, z z2 z4 | !fermata![C,,C,]4 !fermata!G,,4 | %34
 !fermata![C,,C,]8 |] %35
V:6
 x8 | x8 | x8 | x8 | G,,8 | x8 | x8 | x8 | G,,8 | x8 | x8 | x8 | x8 | x8 | x8 | x8 | x8 | x8 | x8 | %19
 x8 | x8 | G,,8 | C,,8 | x8 | x8 | G,,8 | x8 | x8 | x8 | G,,8 | x8 | x8 | x8 | x8 | x8 |] %35
V:7
 x8 | x8 | x8 | x8 | x8 | x8 | x8 | x8 | x8 | x8 | x8 | x8 | x8 | x8 | x8 | x8 | x8 | C4 D2 E2 | %18
 C x x6 | x8 | x8 | x8 | x8 | x8 | x8 | x8 | x8 | x8 | x8 | x8 | x8 | [FG-]8 | x8 | x8 | x8 |] %35

